X:1
T:Title
%%score { 1 | ( 2 3 ) }
L:1/8
M:4/4
K:F
V:1 treble nm="Grand Piano"
V:2 bass 
V:3 bass 
V:1
 z4 z2[Q:1/4=100] c2 | A2 A2 A2 G2 | G2 F2 F2 F2 | [EG]2 [EG]2 [Ec]2 [EG]2 |[M:3/4] A6 | %5
[M:1/4] cB |[M:4/4] A2 A2 [FA]2 G2 | G2 F2 F2 F2 | [DG]2 [DB]2 A2 G2 | F6 z2 |[M:5/4] F3 F F6 | %11
 A3 A [FA]6 |[M:19/16] [Gc]/-[Gc]/-[Gc]-<[Gc]cc/-c/-c/-c/-c/-c-<cd |[M:4/4] G2 A2 z4 | %14
[M:5/4] F3 F F6 |[M:17/16] [Fd]/-[Fd]/-[Fd]-<[Fd][Fc][FA]-<[FA][Ec]3/2[A,F] | %16
[M:4/4] [A,F]3 [B,DF] [CFA]3 [DFA][Q:1/4=99][Q:1/4=97][Q:1/4=96][Q:1/4=94][Q:1/4=93][Q:1/4=91][Q:1/4=90][Q:1/4=88][Q:1/4=87][Q:1/4=85][Q:1/4=84][Q:1/4=82][Q:1/4=81][Q:1/4=79][Q:1/4=78][Q:1/4=76] | %17
[M:5/4] [B,EG]4 [A,F]6 |] %18
V:2
 z4 z2 [F,A,F]2 | [F,CF]2 [F,CF]2 [F,CF]2 [C,B,C]2 | [F,B,C]2 [F,A,C]2 [F,A,C]2 [F,A,C]2 | %3
 [C,C]2 [C,C]2 [C,G,]2 [C,C]2 |[M:3/4] [F,CF]6 |[M:1/4] [F,F]-[F,DF] | %6
[M:4/4] [F,CF]2 [F,CF]2 [C,C]2 [C,B,C]2 | [F,B,C]2 [F,A,C]2 [F,A,C]2 [F,A,C]2 | %8
 [B,,B,]2 [B,,F,]2 [C,F,C]2 [C,B,C]2 | [F,A,C]6 z2 |[M:5/4] [F,A,C]3 [F,B,D] [F,A,C]6 | %11
 [F,CF]3 [A,CE] [D,D]6 | %12
[M:19/16] [E,B,]/-[E,B,]/-[E,B,]-<[E,B,][K:treble][G,B,E][A,CF]/-[A,CF]/-[A,CF]/-[A,CF]/-[A,CF]/-[A,CF]-<[A,CF][B,F] | %13
[M:4/4] [B,CE]2 [A,CF]2 z4 |[M:5/4][K:bass] [F,A,C]3 [F,B,D] [F,C_E]6 | %15
[M:17/16] [B,,B,]/-[B,,B,]/-[B,,B,]-<[B,,B,][C,A,][D,F,]-<[D,F,][C,G,]3/2F, | %16
[M:4/4] D,3 B,, A,,3 C, |[M:5/4] C,4 F,6 |] %18
V:3
 x8 | x8 | x8 | x8 |[M:3/4] x6 |[M:1/4] A, z |[M:4/4] x8 | x8 | x8 | x8 |[M:5/4] x10 | x10 | %12
[M:19/16] x3[K:treble] x13/2 |[M:4/4] x8 |[M:5/4][K:bass] x10 |[M:17/16] x17/2 |[M:4/4] x8 | %17
[M:5/4] x10 |] %18

